X:1
T:“The Favorite”.
T: 
T:“THE FAVORITE”.
T:A RAGTIME   TWO-STEP.
T:By SCOTT JOPLIN. Composer of “Maple Leaf Rag”.
T:Public Domain
T:Public Domain
T:Public Domain
C:Scott Joplin
Z:Public Domain
%%score { ( 1 3 ) | ( 2 4 ) }
L:1/8
Q:1/4=63
M:2/4
K:Bb
V:1 treble nm="Piano" snm="Pno."
V:3 treble 
V:2 bass 
V:4 bass 
V:1
"^Slow March Tempo.""^INTRO." B/AB/ c/d/c | F/G/E/D/- D/B/G/=E/ | F[_E_Gc] [_DF_d][Bc_g] | %3
 [Acf] z z [ce] |:!mf! [Bd]b/g/- g/f/d/B/ | A/fg/ ce | [Bd]b/g/- g/f/d/B/ | A/fg/ [Ac]F | %8
 (3(=E/^c/B/)G (3(F/B/d/)f | (3(=E/^c/B/)G (3(F/B/d/) f/_e/ | [Ag]/e/[Ag]/c/ e/f/e/c/ | %11
 (d/^c/d/B/ =c/=B/c/F/) | [Bd]b/g/- g/f/d/B/ | A/fg/ (ce | [Bd])b/g/- g/f/d/B/ | A/fg/ [Ac]F | %16
 (3(=E/^c/B/)G (3(F/B/d/)f | (3(=E/^c/B/)G (3(F/B/d/) f/_e/ | [Ag]/e/[Ag]/c/ e/f/e/c/ |1 %19
 B3 [ce] :|2 B2 [Bdb] z |:!mf! dg/d/- d/^c/d | ed/c/- c/g/e/c/ | dg/d/- d/^c/d | ed/c/- cd | %25
 (c/B/A/B/) GD | (E/D/C/D/) B,[DGB] |!<(! [GBc]2 [GBe]2!<)! | %28
!f!!<(! !^![^FAd]!<)! z!f!!>(! !^![d^fad']2!>)! |!mf! dg/d/- d/^c/d | ed/c/- c/g/e/c/ | %31
 dg/d/- d/^c/d | ed/c/- cE | (G/^F/G/A/ B/A/B/c/) | d [FBdf]2 [GB^cg] | [FBd]2 [=EBd][_EFc] |1 %36
 [DB]2 [D^Fd]2 :|2 [DB]2 (fe) ||!mf! [Bd]b/g/- g/f/d/B/ | A/fg/ (ce) | [Bd]b/g/- g/f/d/B/ | %41
 A/fg/ [Ac]F | (3(=E/^c/B/G) (3(F/B/d/)f | (3(=E/^c/B/G) (3(F/B/d/) f/_e/ | %44
 [Ag]/e/[Ag]/c/ e/f/e/c/ | (d/^c/d/B/ =c/=B/c/F/) | [Bd]b/g/- g/f/d/B/ | A/fg/ (ce) | %48
 [Bd]b/g/- g/f/d/B/ | A/fg/ [Ac]F | (3(=E/^c/B/)G (3(F/B/d/)f | (3(=E/^c/B/)G (3(F/B/d/) f/_e/ | %52
 [Ag]/e/[Ag]/c/ e/f/e/c/ | B2 [dfb] z |:[K:Eb]!p! [Geg]2 [^Fe^f]2 | [Geg]2 [Bgb]2 | %56
 z/ e/[Aa]/e/ f/[Aa]e/ | [Geg]2 [Bdb]2 | [Geg]2 [^Fe^f][Geg] |!<(! [Bdgb]2 [dgbd']2!<)! | %60
 z/!mf! ^f/[dd']/f/ =a/c'/b/a/ | g2!>(! [Bdb]2!>)! |!p! [Geg]2 [^Fe^f]2 | [Geg]2 [Bgb]2 | %64
 z/ e/[Aa]/e/ f/[Aa]e/ | [Geg]2 [Bgb]2 | z/ e/[Aa]/e/ f/[Aa]e/ | [Geg]2 [cec']2 | %68
 [Bb]/e/[Bg] [=Aeg][_Adf] |1 [Ge] (B/c/ d/e/f/^f/) :|2 [Ge] [Bb]/[Bb]/ [Bb][Bb] |: %71
!f! [dad']2 [faf']2 | [gbg']2 [faf']2 | [ege'][cgc'] [Bgb]2- | [Bgb](e/f/ g/a/b/c'/) | %75
 [dad'][cac'] [Bab]2- | [Bab](f/g/ a/b/c'/d'/) | [ege'][cgc'] [Bgb]2- | [Bgb][Bb]/[Bb]/ [Bb][Bb] | %79
 [dad']2 [faf']2 | [gbg']2 [faf']2 | [ege'][cgc'] [Bgb]2 | [Geg]2 [Bgb]2 | z/ e/[Aa]/e/ f/[Aa]e/ | %84
 [Geg]2 [cec']2 | [Bb]/e/[Bg] [=Aeg][_Adf] |1 [Ge] [Bb]/[Bb]/ [Bb][Bb] :|2 %87
 [Ge]2 !^![ege'] z!fine! |] %88
V:2
 B,/A,B,/ C/D/C | F,/G,/E,/D,/- D,/[=E,G,]/[^C,B,] | [D,A,][A,,A,] [B,,B,][=E,,=E,] | %3
 [F,,F,] !^![F,,F,]!^![G,,G,]!^![A,,A,] |:!ped! [B,,B,][F,B,D] F,,[F,B,D]!ped-up! | %5
!ped! C,[F,A,E] F,,[F,A,C]!ped-up! |!ped! B,,[F,B,D] F,,[F,B,D]!ped-up! | %7
!ped! C,[F,A,E] F,,F,!ped-up! | (G,^C, D,2) | (G,^C, D,2) |!ped! C,[F,A,E] F,,[F,A,E]!ped-up! | %11
 B,,[F,B,D] F,,[F,A,E] |!ped! B,,[F,B,D] F,,[F,B,D]!ped-up! |!ped! C,[F,A,E] F,,[F,A,C]!ped-up! | %14
!ped! B,,[F,B,D] F,,[F,B,D]!ped-up! |!ped! C,[F,A,E] F,,F,!ped-up! | (G,^C, D,2) | (G,^C, D,2) | %18
!ped! C,[F,A,E] F,,[F,A,E]!ped-up! |1 B,!^![F,,F,] !^![G,,G,]!^![A,,A,] :|2 B,[F,,F,][B,,,B,,] z |: %21
 G,,[G,B,D] D,[G,B,D] | C,[G,CE] C,[G,CE] | G,,[G,B,D] D,[G,B,D] | C,[G,CE][G,CE]D | %25
 (E/D/C/D/) B,D, | (C/B,/A,/B,/) G,[G,,G,] | [E,,E,]2 [^C,,^C,]2 | !^![D,,D,] z !^![D,,D,]2 | %29
 G,,[G,B,D] D,[G,B,D] | C,[G,CE] C,[G,CE] | G,,[G,B,D] D,[G,B,D] | C,[G,CE][G,CE] z | %33
 [E,,E,][G,CE] [=E,,=E,][G,B,^C] | [F,,F,][F,B,D] [=E,,=E,][E,G,B,^C] | %35
 [F,,F,][^F,,^F,] [G,,G,][A,,A,] |1 [B,,B,]2 [D,,D,]2 :|2 [B,,B,]2 [F,,F,]2 || %38
!ped! B,,[F,B,D] F,,[F,B,D]!ped-up! |!ped! C,[F,A,E] F,,[F,A,C]!ped-up! | %40
!ped! B,,[F,B,D] F,,[F,B,D]!ped-up! |!ped! C,[F,A,E] F,,F,!ped-up! | (G,^C, D,2) | (G,^C, D,2) | %44
!ped! C,[F,A,E] F,,[F,A,E]!ped-up! | B,,[F,B,D] F,,[F,A,E] |!ped! B,,[F,B,D] F,,[F,B,D]!ped-up! | %47
!ped! C,[F,A,E] F,,[F,A,C]!ped-up! |!ped! B,,[F,B,D] F,,[F,B,D]!ped-up! | %49
!ped! C,[F,A,E] F,,F,!ped-up! | (G,^C, D,2) | (G,^C, D,2) |!ped! C,[F,A,E] F,,[F,A,E]!ped-up! | %53
 [B,D][F,,F,][B,,,B,,] z |:[K:Eb] E,[G,B,E] E,[=A,CE] | E,[G,B,E] [E,E][_D,_D] | %56
 [C,C][A,CE] [C,C][_C,_C] | [B,,B,][G,B,E] [F,,F,][B,,,B,,] | [E,,E,][G,B,E] E,[G,B,E] | %59
 D,[G,B,D] D,[G,B,D] | D,[^F,CD] D,[F,CD] | [G,B,D]2 [F,,F,][B,,,B,,] | [E,,E,][G,B,E] E,[=A,CE] | %63
 E,[G,B,E] [E,E][_D,_D] | [C,C][A,CE] [C,C][_C,_C] | [B,,B,][G,B,E] [E,E][_D,_D] | %66
 [C,C][A,CE] [C,C][_C,_C] | [B,,B,][G,B,E] [=A,,=A,][^F,CE] | [B,,B,][G,B,E] [F,,F,][B,,,B,,] |1 %69
 [E,,E,] z z2 :|2 [E,,E,] z z2 |: F,[A,B,D] B,,[A,B,D] | D,[A,B,D] B,,[A,B,D] | %73
 E,[G,B,E] B,,[G,B,E] | E,[G,B,E] B,,[G,B,E] | F,[A,B,D] B,,[A,B,D] | D,[A,B,D] B,,[A,B,D] | %77
 E,[G,B,E] B,,[G,B,E] | [E,G,B,E] z z2 | F,[A,B,D] B,,[A,B,D] | D,[A,B,D] B,,[A,B,D] | %81
 E,[G,B,E] B,,[G,B,E] | E,[G,B,E] [E,E][_D,_D] | [C,C][A,CE] [C,C][_C,_C] | %84
 [B,,B,][G,B,E] [=A,,=A,][^F,CE] | [B,,B,][G,B,E] [F,,F,][B,,,B,,] |1 [E,,E,] z z2 :|2 %87
 [E,,E,]B,,!^!E,, z |] %88
V:3
 x4 | x4 | x4 | x4 |: x4 | x2 A2 | x4 | x4 | x4 | x4 | x4 | x4 | x4 | x2 A2 | x4 | x4 | x4 | x4 | %18
 x4 |1 x4 :|2 x4 |: x4 | x4 | x4 | x4 | x4 | x4 | x4 | x4 | x4 | x4 | x4 | x4 | x4 | x4 | x4 |1 %36
 x4 :|2 x2 A2 || x4 | x2 A2 | x4 | x4 | x4 | x4 | x4 | x4 | x4 | x2 A2 | x4 | x4 | x4 | x4 | x4 | %53
 x4 |:[K:Eb] x4 | x4 | x4 | x4 | x4 | x4 | x4 | x4 | x4 | x4 | x4 | x4 | x4 | x4 | x4 |1 x4 :|2 %70
 x4 |: x4 | x4 | x4 | x4 | x4 | x4 | x4 | x4 | x4 | x4 | x4 | x4 | x4 | x4 | x4 |1 x4 :|2 x4 |] %88
V:4
 x4 | x4 | x4 | x4 |: x4 | x4 | x4 | x4 | x4 | x4 | x4 | x4 | x4 | x4 | x4 | x4 | x4 | x4 | x4 |1 %19
 D3 z :|2 D2 x2 |: x4 | x4 | x4 | C,3 D | x4 | x4 | x4 | x4 | x4 | x4 | x4 | x4 | x4 | x4 | x4 |1 %36
 x4 :|2 x4 || x4 | x4 | x4 | x4 | x4 | x4 | x4 | x4 | x4 | x4 | x4 | x4 | x4 | x4 | x4 | x4 |: %54
[K:Eb] x4 | x4 | x4 | x4 | x4 | x4 | x4 | x4 | x4 | x4 | x4 | x4 | x4 | x4 | x4 |1 x4 :|2 x4 |: %71
 x4 | x4 | x4 | x4 | x4 | x4 | x4 | x4 | x4 | x4 | x4 | x4 | x4 | x4 | x4 |1 x4 :|2 x4 |] %88

